!!!COM: Scriabin, Alexander
!!!OTL: Prelude
!!!OPR: 4 Preludes
!!!OPS: 37
!!!ONM: 1
!!!ODT: 1903
!!!AGN: Prelude
**kern	**kern	**dynam
*staff2	*staff1	*staff1/2
*Ipiano	*Ipiano	*
*clefF4	*clefG2	*
*k[b-e-a-d-g-]	*k[b-e-a-d-g-]	*
*b-:	*b-:	*
*M9/8	*M9/8	*
=1	=1	=1
*	*^	*
*	*	*^	*
8d-L	4ff	4b-	4g-/	.
8E-	.	.	.	.
8FJ	8b-	8f	8d-/	.
8G-L	[4.dd-	[4.e-	[4.d-/	.
8BB-	.	.	.	.
8EE-J	.	.	.	.
8AAnL	4dd-]	4e-]	4d-/]	.
8A-X	.	.	.	.
8G-J	8dd-	8e-	8d-/	.
=2	=2	=2	=2	=2
8FL	[2.dd-	[2.f	2.d-/	.
8BB-	.	.	.	.
8BBB-J	.	.	.	.
8FFL	.	.	.	.
8D-	.	.	.	.
8FJ	.	.	.	.
8cL	4.dd-]	4.f]	4.r	.
8An	.	.	.	.
8B-J	.	.	.	.
=3	=3	=3	=3	=3
8d-L	4ff	4b-	4g-/	.
8E-	.	.	.	.
8FJ	8b-	8f	8d-/	.
8G-L	[4.dd-	[4.e-	[4.d-/	.
8BB-	.	.	.	.
8EE-J	.	.	.	.
8BB--L	4dd-]	4e-]	4d-/]	.
8A-	.	.	.	.
8G-J	8dd-	8e-	8d-/	.
=4	=4	=4	=4	=4
8FL	[2.dd-	[2.f	2.d-/	.
8AA-	.	.	.	.
8DD-J	.	.	.	.
8AA-L	.	.	.	.
8D-	.	.	.	.
8FJ	.	.	.	.
8B-L	4.dd-]	4.f]	4.r	.
8Gn	.	.	.	.
8A-J	.	.	.	.
=5	=5	=5	=5	=5
8c-XL	4ff-X	4a-	4f-X/	.
8D-	.	.	.	.
8E-J	8a-	8e-	8c-X/	.
8F-XL	[4.cc-X	[4.d-	[4.c-/	.
8AA-	.	.	.	.
8DD-J	.	.	.	.
8AA--L	4cc-]	4d-]	4c-/]	.
8G-	.	.	.	.
8F-J	8cc-	8d-	8c-/	.
*	*	*v	*v	*
=6	=6	=6	=6
8E-L	[4.cc-X	2.c-X 2.e-	.
8GG-	.	.	.
8CC-XJ	.	.	.
8GG-L	4cc-]	.	.
8C-X	.	.	.
8E-J	8g-	.	.
8A-L	4cc-	4.c- 4.e-	.
8F	.	.	.
8G-J	8b-	.	.
=7	=7	=7	=7
8G-L	40%3b-L	4.c-X 4.e-	.
.	40%3cc-X	.	.
8C-X	.	.	.
.	40%3b-	.	.
.	40%3an	.	.
8EE-J	.	.	.
.	40%3b-J	.	.
8C-L	4.ee-	4.g- 4.b-	.
8G-	.	.	.
8C-J	.	.	.
8c-XL	4.b-	4.e- 4.g-	.
8G-	.	.	.
8C-J	.	.	.
=8	=8	=8	=8
8FL	[4.an	[4.cn [4.f	.
8Cn	.	.	.
8FFJ	.	.	.
8CL	4a]	4c] 4f]	.
8F	.	.	.
8E-J	8b-	8c-X 8g-	.
8c-XL	4ee-	4g- 4b-	.
8G-	.	.	.
8E-J	8b-	8c- 8g-	.
=9	=9	=9	=9
8FL	[4.an	[4.cn [4.f	.
8Cn	.	.	.
8FFJ	.	.	.
8CL	4a]	4c] 4f]	.
8F	.	.	.
8E-J	8b-	8c-X 8g-	.
8c-XL	8gg-L	8b-L 8ee-	.
8G-	8.ee-	8.g- 8.b-	.
8E-J	.	.	.
.	16b-Jk	16c-Jk 16g-	.
=10	=10	=10	=10
8FL	4.an	4.cn 4.f	.
8Cn	.	.	.
8FFJ	.	.	.
8CL	4raa	4rc	.
8An	.	.	.
8cJ	8raa	8rc	.
8g-L	4raa	4rc	.
8en	.	.	.
8fJ	8raa	8rc	.
=11	=11	=11	=11
*	*	*^	*
8a-XL	4ccc	4ff	4dd-\	.
8B-	.	.	.	.
8cJ	8ff	8cc	8a-/	.
8d-L	[4.aa-	[4.b-	[4.a-/	.
8F	.	.	.	.
8BB-J	.	.	.	.
8F-XL	4aa-]	4b-]	4a-/]	.
8e-	.	.	.	.
8d-J	8aa-	8b-	8a-/	.
=12	=12	=12	=12	=12
8cL	[2.aa-	[2.cc	2.a-/	.
8E-	.	.	.	.
8AA-J	.	.	.	.
8E-L	.	.	.	.
8A-	.	.	.	.
8cJ	.	.	.	.
8fL	4.aa-]	4.cc]	4.r	.
8dn	.	.	.	.
8e-J	.	.	.	.
=13	=13	=13	=13	=13
8g-L	4ccc-X	4ee-	4cc-X\	.
8A-	.	.	.	.
8B-J	8ee-	8b-	8g-/	.
8c-XL	[4.gg-	[4.a-	[4.g-/	.
8E-	.	.	.	.
8AA-J	.	.	.	.
8DnL	4gg-]	4.a-]	4.g-/]	.
8d-X	.	.	.	.
8c-J	8gg-	.	.	.
*	*	*v	*v	*
=14	=14	=14	=14
8B-L	[2.gg-	[2.g- [2.b-	.
8E-	.	.	.
8EE-J	.	.	.
8BB-L	.	.	.
8G-	.	.	.
8B-J	.	.	.
8fL	4.gg-]	4.g-] 4.b-]	.
8e-	.	.	.
8B-J	.	.	.
=15	=15	=15	=15
*	*	*^	*
8d-L	4ff	4b-	4g-/	.
8E-	.	.	.	.
8FJ	8b-	8f	8d-/	.
8G-L	[4.dd-	4.e-	4.d-/	.
8BB-	.	.	.	.
8EE-J	.	.	.	.
8BB-L	4.dd-]	4.b-	4.d-/	.
8A-	.	.	.	.
8G-J	.	.	.	.
*	*	*v	*v	*
=16	=16	=16	=16
8B-L	[2.dd-	[2.d- [2.b-	.
8D-	.	.	.
8EEnJ	.	.	.
8D-L	.	.	.
8B-	.	.	.
8G-J	.	.	.
8g-L	4.dd-]	4.d-] 4.b-]	.
8B-	.	.	.
8G-J	.	.	.
=17	=17	=17	=17
8B-L	40%3dd-L	4.g- 4.b-	.
.	40%3ee-	.	.
8D-	.	.	.
.	40%3dd-	.	.
.	40%3cc	.	.
8FFJ	.	.	.
.	40%3dd-J	.	.
8D-L	4.gg-	4.b- 4.dd-	.
8B-	.	.	.
8G-J	.	.	.
8g-L	4.dd-	4.g- 4.b-	.
8B-	.	.	.
8FFJ	.	.	.
=18	=18	=18	=18
8E-L	[4.cc-X	[4.e- [4.g-	.
8c-X	.	.	.
8G-J	.	.	.
8g-L	4cc-]	4e-] 4g-]	.
8c-	.	.	.
8FFJ	8dd-	8g- 8b-	.
8D-L	4gg-	4b- 4dd-	.
8B-	.	.	.
8FFJ	8dd-	8g- 8b-	.
=19	=19	=19	=19
8E-L	[4.cc-X	[4.e- [4.g-	.
8c-X	.	.	.
8G-J	.	.	.
8g-L	4cc-]	4e-] 4g-]	.
8c-	.	.	.
8FFJ	8dd-	8g- 8b-	.
8D-L	8bb-L	8g-L 8dd-	.
8B-	8gg-	8b- 8dd-	.
8FFJ	8dd-J	8g-J 8b-	.
=20	=20	=20	=20
8E-L	[4.cc-X	4.e- 4.g-	.
8c-X	.	.	.
8G-J	.	.	.
8g-L	4.cc-]	4.rc	.
8c-	.	.	.
8e-J	.	.	.
[4.cc-X	4.raa	4.rc	.
=21	=21	=21	=21
2.cc-]	8%9ryy	4.r	.
.	.	4.r	.
4.r	.	8gg-L	.
.	.	8ee-	.
.	.	8b-J	.
=22	=22	=22	=22
*^	*	*	*
[2.e-	[2.F	4.raa	8anL	.
.	.	.	8a-X	.
.	.	.	[8anJ	.
.	.	8gg-	2.a]	.
.	.	[4dd-	.	.
4.e-]	4.F]	4dd-]	.	.
.	.	8cc	.	.
=23	=23	=23	=23	=23
2.d-	2.G-	16%3cc	2.g-	.
.	.	16%3b-	.	.
.	.	16%3an	.	.
.	.	16%3b-	.	.
4.B-	4.C	16%3a-X	4.en	.
.	.	16%3g-	.	.
=24	=24	=24	=24	=24
[2.B-	[2.D-	8fL	[2.f	.
.	.	8an	.	.
.	.	8b-J	.	.
.	.	[4.ff	.	.
4.B-]	4.D-]	4ff]	4.f]	.
.	.	8ff	.	.
=25	=25	=25	=25	=25
[2.c-X	[2.E-	2.ff	[2.g-	.
4.c-]	4.E-]	4.ee-	4.g-]	.
=26	=26	=26	=26	=26
2.rc	2.rEE	2.raa	2.rc	.
4.B-	4.D-	4.ff	4.f	.
=27	=27	=27	=27	=27
2.c-X	2.E-	[4.ff	2.g-	.
.	.	4ff]	.	.
.	.	8ee-	.	.
4.e-	4.F	4dd-	4.an	.
.	.	8cc	.	.
*v	*v	*	*	*
=28	=28	=28	=28
[2.BB- [2.E- [2.d-	40%3b-L	[2.g-	.
.	40%3cc	.	.
.	40%3b-	.	.
.	40%3an	.	.
.	40%3b-J	.	.
.	4.ff	.	.
4.BB-] 4.E-] 4.d-]	4.b-	4.g-]	.
=29	=29	=29	=29
[2.BB- [2.E- [2.d-	[2.dd-	[2.g- [2.b-	.
4.BB-] 4.E-] 4.d-]	4.dd-]	4.g-] 4.b-]	.
*	*v	*v	*
=30	=30	=30
[8qBBB-/ [8qFF	.	.
2.BBB-_ 2.FF_ [2.BB- [2.F [2.B-	[2.d- [2.f [2.b- [2.dd-	.
4.BBB-_ 4.FF_ 4.BB-_ 4.F_ 4.B-_	4.d-_ 4.f_ 4.b-_ 4.dd-_	.
=31	=31	=31
2.BBB-_ 2.FF_ 2.BB-_ 2.F_ 2.B-_	2.d-_ 2.f_ 2.b-_ 2.dd-_	.
4.BBB-] 4.FF] 4.BB-] 4.F] 4.B-]	4.d-] 4.f] 4.b-] 4.dd-]	.
==	==	==
*-	*-	*-
!!!system-decoration: {(*)}
!!!ENC: Bryan Jacob Bell
!!!END: November 2021 to April 2022
!!!PED: Konstantin Igumnov and Yakov Milstein
!!!PTL: A.N. Skryabin: Polnoe sobranie sochinenii dlia fortepiano (Muzgiz)
